www/assets/icons/margin.svg

<svg xmlns="http://www.w3.org/2000/svg" width="24" height="24" viewBox="0 0 24 24" fill='currentColor'><path d="M3 3v18h18V3zm16 16H5V5h14zM11 7h2v2h-2zM7 7h2v2H7zm8 0h2v2h-2zm-8 4h2v2H7zm4 0h2v2h-2zm4 0h2v2h-2z"/></svg>

<svg width="24" height="24" viewBox="0 0 24 24" xmlns="http://www.w3.org/2000/svg" fill='currentColor'><path d="M3 3V21H21V3H3ZM19 19H5V5H19V19ZM11 7H13V9H11V7ZM7 7H9V9H7V7ZM15 7H17V9H15V7ZM7 11H9V13H7V11ZM11 11H13V13H11V11ZM15 11H17V13H15V11Z"/></svg>
